!!!COM:	Ockeghem, Johannes
!!!CDT:	~1425-1497/02/06
!!!OPR:	Missa Ecce ancilla Domini
!!!ONM:	4
!!!OTL:	Sanctus
!!!AGN:	Mass; Sanctus
!!!SCT:	Ock1006d
!!!SCA:	Ock1006d
!!!voices:	4
!!!voices-OPR:	4
**kern	**kern	**kern	**kern
*staff4	*staff3	*staff2	*staff1
*Ivox	*Ivox	*Ivox	*Ivox
*I"Bassus	*I"Tenor	*I"Contratenor	*I"Discantus
*I'B	*I'T	*I'Ct	*I'D
*>[A,B,C,D]	*>[A,B,C,D]	*>[A,B,C,D]	*>[A,B,C,D]
*>A	*>A	*>A	*>A
*clefF4	*clefGv2	*clefGv2	*clefG2
*k[]	*k[]	*k[]	*k[]
*M3/1	*M3/1	*M3/1	*M3/1
*met(O)	*met(O)	*met(O)	*met(O)
!!section: Sanctus
!!!OMD: Sanctus
=1-	=1-	=1-	=1-
0.r	0.r	1.G	0.g
.	.	2A/	.
.	.	1B	.
=2	=2	=2	=2
0.r	0.r	0.c	1.g
.	.	.	2.a/
.	.	.	4g/
.	.	.	[2e/
=3	=3	=3	=3
0.r	0.r	2.c\	2e/]
.	.	.	4d/
.	.	4A/	4c/
.	.	2G/	2B/
.	.	1c	2c/
.	.	.	1d
.	.	2B\	.
=4	=4	=4	=4
0.r	0.r	1c	2r
.	.	.	2c/
.	.	1r	2e/
.	.	.	2f/
.	.	1B	1g
=5	=5	=5	=5
0.r	0.r	2A/	1a
.	.	1c	.
.	.	.	1g
.	.	1G	.
.	.	.	2b\
.	.	2c\	[2a/
=6	=6	=6	=6
0.r	0.r	2d\	2a/]
.	.	1e	2g/
.	.	.	2cc\
.	.	2c\	1cc
.	.	1d	.
.	.	.	2b\
=7	=7	=7	=7
0.r	0.r	1c	1cc
.	.	2r	2b\
.	.	1c	2g/
.	.	.	2.a/
.	.	2d\	.
.	.	.	4g/
=8	=8	=8	=8
0.r	0.r	2.e\	1e
.	.	4c\	.
.	.	2d\	2r
.	.	2c\	2e/
.	.	2A/	2f/
.	.	2B\	[2g/
=9	=9	=9	=9
0.r	0.r	1c	2g/]
.	.	.	2e/
.	.	2B\	1d
.	.	1G	.
.	.	.	1g
.	.	[2c\	.
=10	=10	=10	=10
0.r	0.r	2c\]	1a
.	.	1d	.
.	.	.	2.b\
.	.	1e	.
.	.	.	4g/
.	.	.	2g/
.	.	[2c\	2a/
=11	=11	=11	=11
0.r	0.r	2c\]	1cc
.	.	1d	.
.	.	.	2b\
.	.	2B\	2g/
.	.	2c\	2a/
.	.	2B\	[2b\
=12	=12	=12	=12
0.r	0.r	1G	2b\]
.	.	.	4a/
.	.	.	4g/
.	.	2.d\	2f/
.	.	.	2g/
.	.	4B\	.
.	.	2c\	2e/
.	.	4B\	[2d/
.	.	[4B\	.
=13	=13	=13	=13
0.r	0.r	4B\]	2d/]
.	.	8A/L	.
.	.	8G/J	.
.	.	2F/	1a
.	.	1G	.
.	.	.	1g
.	.	1A	.
.	.	.	2f#i/
=14	=14	=14	=14
0G	0d	0.G	0g
2.C/	1c	.	1r
4D\	.	.	.
=15	=15	=15	=15
4E\	1B	2r	0g
4F\	.	.	.
1G	.	1G	.
.	1d	.	.
2E\	.	2A/	.
1D	1d	1B	1f
=16	=16	=16	=16
2.C/	0.e	1.c	1e
4D\	.	.	.
2E\	.	.	0g
1E	.	2B\	.
.	.	1c	.
2C/	.	.	.
=17	=17	=17	=17
2.BB/	[0.d	2.d\	2r
.	.	.	2g/
4C/	.	4B\	.
2D\	.	2A/	2f/
1GG	.	2B\	2g/
.	.	2G/	1b-
[2D\	.	[2F/	.
=18	=18	=18	=18
2D\]	0d]	2F/]	1.a
1F	.	2D/	.
.	.	2A/	.
2G\	.	2B\	1g
1E	1c	1G	.
.	.	.	2e/
=19	=19	=19	=19
2.D\	0.d	1A	2.f/
4E\	.	.	4g/
2F\	.	1.D	2a/
1BB-i	.	.	1b-i
2D\	.	[2F/	2a/
=20	=20	=20	=20
2BB-i/	0.d	4F/]	2.f/
.	.	4G/	.
4AA/	.	2B-i\	.
4GG/	.	.	4g/
2FF/	.	2A/	2a/
1GG	.	2G/	2d/
.	.	1A	2r
2FF/	.	.	2f/
=21	=21	=21	=21
0.GG	0.G	1B	2e/
.	.	.	1d
.	.	2G/	.
.	.	2D/	2.g/
.	.	2r	.
.	.	.	4f/
.	.	[2B\	2e/
=22	=22	=22	=22
2BB/	0.r	2B\]	2d/
2AA/	.	1c	1e
2C/	.	.	.
2D\	.	1A	1d
1E	.	.	.
.	.	2G/	2c#i/
=23	=23	=23	=23
[0.D	0.F	1.A	0.d
.	.	1B-i	.
.	.	4A/	.
.	.	4G/	.
=24	=24	=24	=24
1D]	0.A	0F	1r
0D	.	.	0d
.	.	1A	.
=25	=25	=25	=25
0AA	0.c	0A	1.e
.	.	.	2c/
1C	.	1G	2.e/
.	.	.	4f/
=26	=26	=26	=26
2.C/	0.c	1E	1.g
4D\	.	.	.
2E\	.	1r	.
2F\	.	.	2a/
2E\	.	[1G	2g/
2C/	.	.	2e/
=27	=27	=27	=27
2r	0.B	2G/]	1d
2.G\	.	2.B\	.
.	.	.	1.g
4A\	.	4c\	.
2.B\	.	2d\	.
.	.	1G	.
4c\	.	.	.
2d\	.	.	4f/
.	.	.	4g/
=28	=28	=28	=28
2r	0.A	2D/	2.a/
2D\	.	2F/	.
.	.	.	4b\
2C/	.	2E/	2cc\
1D	.	2D/	2.f/
.	.	1F	.
.	.	.	4g/
4C/	.	.	[2a/
4BB/	.	.	.
=29	=29	=29	=29
1AA	[0.c	2r	2a/]
.	.	2E/	2g/
2C/	.	2A/	1e
2.C/	.	2G/	.
.	.	1E	1g
4BB/	.	.	.
4AA/	.	.	.
4GG/	.	.	.
=30	=30	=30	=30
2FF/	0.c]	1F	1.a
1F	.	.	.
.	.	2.c\	.
4E\	.	.	2g/
4D\	.	4d\	.
2.C/	.	1e	1cc
4D\	.	.	.
=31	=31	=31	=31
2.E\	0.G	1e	1.b
4D\	.	.	.
2BB/	.	2d\	.
1C	.	1e	2g/
.	.	.	[1g
4BB/	.	4d\	.
4AA/	.	4c\	.
=32	=32	=32	=32
0.GGl	0.Gl	0.Bl	2g/]
.	.	.	4f/
.	.	.	4e/
.	.	.	0dl
!!LO:LB:i:g=z
=33||	=33||	=33||	=33||
*>B	*>B	*>B	*>B
*clefF4	*clefGv2	*clefGv2	*clefG2
*k[]	*k[]	*k[]	*k[]
*M3/1	*M3/1	*M3/1	*M3/1
*met(O)	*met(O)	*met(O)	*met(O)
!!section: Pleni sunt celi
!!!OMD: Pleni sunt celi
0.r	0.r	1.D	0.r
.	.	2E/	.
.	.	2F/	.
.	.	4E/	.
.	.	4F/	.
=34	=34	=34	=34
1.GG	0.r	1.G	0.r
2AA/	.	2F/	.
2BB/	.	1G	.
4AA/	.	.	.
4BB/	.	.	.
=35	=35	=35	=35
2C/	0.r	1A	0.r
2AA/	.	.	.
2D\	.	2F/	.
1D	.	2D/	.
.	.	1E	.
2C#i/	.	.	.
=36	=36	=36	=36
1D	0.r	2D/	0.r
.	.	2F/	.
2E\	.	2G/	.
1F	.	1A	.
4E\	.	2B\	.
4D\	.	.	.
=37	=37	=37	=37
2C/	0.r	2c\	0.r
2D\	.	1B	.
1AA	.	.	.
.	.	1A	.
1BB	.	.	.
.	.	2G#i/	.
=38	=38	=38	=38
2.AA/	0.r	1A	0.r
4BB/	.	.	.
2C/	.	1r	.
2D\	.	.	.
2C/	.	1A	.
[2F\	.	.	.
=39	=39	=39	=39
2F\]	0.r	2.A/	0.r
2D\	.	.	.
.	.	4B\	.
2E\	.	2c\	.
2D\	.	1d	.
2F\	.	.	.
2G\	.	2B\	.
=40	=40	=40	=40
1A	0.r	2A/	0.r
.	.	2.c\	.
2D\	.	.	.
.	.	4B\	.
1G	.	2G/	.
.	.	1A	.
2F#i\	.	.	.
=41	=41	=41	=41
0G	0.r	0.G	0.r
1r	.	.	.
=42	=42	=42	=42
1C	0.r	0.r	1e
2D\	.	.	2f/
2BB/	.	.	1g
2C/	.	.	.
2AA/	.	.	2c/
=43	=43	=43	=43
1GG	0.r	0.r	2d/
.	.	.	1e
1C	.	.	.
.	.	.	2c/
1BB	.	.	1d
=44	=44	=44	=44
1C	0.r	1c	2c/
.	.	.	2e/
2D\	.	2A/	2f/
2.E\	.	2G/	2.g/
.	.	2c\	.
4C/	.	.	4c/
2BB/	.	2d\	[2g/
=45	=45	=45	=45
1C	0.r	2c\	2g/]
.	.	1e	2a/
1r	.	.	2b\
.	.	2c\	1cc
1GG	.	1d	.
.	.	.	2b\
=46	=46	=46	=46
2.C/	0.r	1.c	1cc
4BB/	.	.	.
2AA/	.	.	1r
2GG/	.	2B\	.
1FF	.	1A	1cc
=47	=47	=47	=47
1GG	0.r	1G	1b
0D	.	0F	1.a
.	.	.	2g/
=48	=48	=48	=48
1GGl	0.r	1G	1b
1r	.	0c	2g/
.	.	.	2.a/
1r	.	.	.
.	.	.	4g/
.	.	.	2a/
=49	=49	=49	=49
0.r	0.r	2B\	2g/
.	.	2A/	2f/
.	.	2d\	1d
.	.	1d	.
.	.	.	1e
.	.	2c#i\	.
=50	=50	=50	=50
0.r	0.r	2d\	1d
.	.	2G/	.
.	.	2A/	2r
.	.	2B\	2d/
.	.	2c\	2e/
.	.	2d\	2f/
=51	=51	=51	=51
0.r	0.r	2B\	2.g/
.	.	1.e	.
.	.	.	4a/
.	.	.	2b\
.	.	.	2cc\
.	.	2d\	2b\
.	.	2c\	[2cc\
=52	=52	=52	=52
0.r	0.r	2.e\	4cc\]
.	.	.	4b\
.	.	.	2g/
.	.	4d\	.
.	.	2B\	2r
.	.	2r	2.cc\
.	.	1e	.
.	.	.	4b\
.	.	.	[2b\
=53	=53	=53	=53
0.r	0.r	2d\	2b\]
.	.	2c\	2a/
.	.	1e	2g/
.	.	.	2cc\
.	.	2d\	2b\
.	.	2B\	2g/
=54	=54	=54	=54
0.r	0.r	2c\	2a/
.	.	2d\	1d
.	.	1G	.
.	.	.	1g
.	.	1A	.
.	.	.	2f#i/
=55	=55	=55	=55
0.r	0.r	0.Gl	0.gl
!!LO:LB:i:g=z
=56||	=56||	=56||	=56||
*>C	*>C	*>C	*>C
*clefF4	*clefGv2	*clefGv2	*clefG2
*k[]	*k[]	*k[]	*k[]
*M2/1	*M2/1	*M2/1	*M2/1
*met(C|)	*met(C|)	*met(C|)	*met(C|)
!!section: Osanna
!!!OMD: Osanna
[0GG	[0G	[0d	[0g
=57	=57	=57	=57
1GG]	0G]	1d]	0g]
[1C	.	[1e	.
=58	=58	=58	=58
1C]	1r	1e]	1a
1BB	1G	1d	1b
=59	=59	=59	=59
1AA	0A	1e	0cc
1FF	.	1f	.
=60	=60	=60	=60
0GG	0G	1.d	1.b
.	.	2B\	2g/
=61	=61	=61	=61
0r	1F	1c	1a
.	[1G	1B	1g
=62	=62	=62	=62
0GG	2G/]	1.d	1r
.	2E/	.	.
.	1D	.	1g
.	.	2c\	.
=63	=63	=63	=63
1D	1r	0A	1f
1F	1D	.	1d
=64	=64	=64	=64
1E	1G	0r	0e
1C	1A	.	.
=65	=65	=65	=65
1.D	0B	1F	0d
.	.	1G	.
2C/	.	.	.
=66	=66	=66	=66
0AA	0c	0A	1r
.	.	.	1e
=67	=67	=67	=67
1.D	1A	1.F	1f
.	1F	.	[1d
2C/	.	2E/	.
=68	=68	=68	=68
1BB	1G	1D	1d]
1AA	1A	[1E	[1c
=69	=69	=69	=69
0C	1G	1E]	2c/]
.	.	.	2d/
.	[1c	1G	1e
=70	=70	=70	=70
0D	1c]	2F/	0f
.	.	1F	.
.	1B	.	.
.	.	2E/	.
=71	=71	=71	=71
0C	0c	0G	0e
=72	=72	=72	=72
0F	1d	0r	1a
.	1c	.	[1a
=73	=73	=73	=73
0G	0B	0r	1a]
.	.	.	1g
=74	=74	=74	=74
1r	0A	[0F	0a
[1D	.	.	.
=75	=75	=75	=75
1D]	1r	1F]	1b
1C	[1A	1E	[1cc
=76	=76	=76	=76
1F	1A]	1A	1cc]
1G	1B	1G	1b
=77	=77	=77	=77
1E	0c	1C	1g
[1F	.	1c	[1a
=78	=78	=78	=78
1F]	1B	1d	2a/]
.	.	.	2g/
1G	1G	1B	[1g
=79	=79	=79	=79
0D	0A	1A	1g]
.	.	2r	1f#i
.	.	[2d\	.
=80	=80	=80	=80
1GG	1.G	2d\]	0g
.	.	2e\	.
2BB/	.	2d\	.
2C/	2E/	[2e\	.
=81	=81	=81	=81
1AA	1F	2e\]	1r
.	.	2c\	.
1GG	1G	1B	2.d/
.	.	.	4e/
=82	=82	=82	=82
2r	1D	2A/	2f/
1GG	.	2G/	2.g/
.	1G	1D	.
.	.	.	4e/
2BB/	.	.	2d/
=83	=83	=83	=83
2C/	2A/	2E/	2c/
1D	1B	2.F/	1f
.	.	4G/	.
2C/	2c\	[2A/	[2e/
=84	=84	=84	=84
1D	2A/	2A/]	2e/]
.	2F/	2B\	1d
1E	1G	2G/	.
.	.	2E/	2c#i/
=85	=85	=85	=85
1D	1A	1F	1d
2BB/	2G/	2D/	1r
2C/	[2c\	2E/	.
=86	=86	=86	=86
1D	2c\]	1F	1f
.	2B\	.	.
2C/	1c	2G/	1e
[2AA/	.	[2A/	.
=87	=87	=87	=87
2AA/]	1d	2A/]	2f/
2BB/	.	2G/	1g
1C	2c\	1E	.
.	2A/	.	2e/
=88	=88	=88	=88
2D\	2B\	2F/	2d/
2C/	1c	2E/	2e/
2AA/	.	2C/	1f
2BB/	2B\	2D/	.
=89	=89	=89	=89
1C	2G/	1E	2e/
.	1A	.	2c/
2BB/	.	2D/	2d/
2GG/	[2G/	2BB/	[2e/
=90	=90	=90	=90
1AA	2G/]	1C	2e/]
.	2F/	.	2c/
2.GG/	1G	1D	2.B/
4AA/	.	.	4c/
=91	=91	=91	=91
2BB/	2D/	2.G/	2d/
2C/	2E/	.	2G/
.	.	4A/	.
2BB/	2F/	1B	2r
[2GG/	[2G/	.	2d/
=92	=92	=92	=92
2GG/]	2G/]	2G/	2e/
2FF/	2D/	2A/	1d
1GG	2G/	2B\	.
.	2B\	2G/	2g/
=93	=93	=93	=93
0D	0A	1D	2a/
.	.	.	1f#i
.	.	1d	.
.	.	.	4e/
.	.	.	4f#i/
=94	=94	=94	=94
[0GGl	[0Gl	1r	[0gl
.	.	1d	.
=95	=95	=95	=95
0GG_	0G_	1.B	0g_
.	.	2c\	.
=96	=96	=96	=96
0GG]	0G]	0dl	0g]
!!LO:TX:rj:Y=20:i:t=fine
!!LO:LB:i:g=z
=97||	=97||	=97||	=97||
*>D	*>D	*>D	*>D
*clefF4	*clefGv2	*clefGv2	*clefG2
*k[]	*k[]	*k[]	*k[]
*M2/1	*M2/1	*M2/1	*M2/1
*met(C|)	*met(C|)	*met(C|)	*met(C|)
!!section: Benedictus
!!!OMD: Benedictus
0r	0r	[0c	[0g
=98	=98	=98	=98
0r	0r	0c_	1g]
.	.	.	[1a
=99	=99	=99	=99
0r	0r	0c]	2a/]
.	.	.	4g/
.	.	.	4f/
.	.	.	[1e
=100	=100	=100	=100
0r	0r	0A	1e]
.	.	.	1f
=101	=101	=101	=101
0r	0r	1B	0g
.	.	[1c	.
=102	=102	=102	=102
0r	0r	2c\]	1c
.	.	4B\	.
.	.	4A/	.
.	.	1G	1d
=103	=103	=103	=103
0r	0r	2r	1.e
.	.	1G	.
.	.	4F/	4d/
.	.	4E/	4c/
=104	=104	=104	=104
0r	0r	1D	1B
.	.	2r	2c/
.	.	2C/	2e/
=105	=105	=105	=105
0r	0r	2F/	1d
.	.	2G/	.
.	.	1A	2r
.	.	.	[2c/
=106	=106	=106	=106
0r	0r	1A	2c/]
.	.	.	2f/
.	.	2G/	2g/
.	.	2F/	[2a/
=107	=107	=107	=107
0r	0r	2A/	4a/]
.	.	.	4g/
.	.	2B\	1g
.	.	1c	.
.	.	.	2e/
=108	=108	=108	=108
0r	0r	2d\	2f/
.	.	1e	2e/
.	.	.	1g
.	.	[2c\	.
=109	=109	=109	=109
0r	0r	2c\]	1c
.	.	2C/	.
.	.	2D/	2B/
.	.	2C/	[2c/
=110	=110	=110	=110
0r	0r	2c\	2c/]
.	.	1c	2e/
.	.	.	1d
.	.	2B\	.
=111	=111	=111	=111
0r	0r	0c	0c
=112	=112	=112	=112
0r	0r	0r	1.e
.	.	.	2f/
=113	=113	=113	=113
0r	0r	1r	2g/
.	.	.	4f/
.	.	.	4g/
.	.	[1A	1a
=114	=114	=114	=114
0r	0r	2A/]	2f/
.	.	2B\	1g
.	.	2c\	.
.	.	4B\	2e/
.	.	4c\	.
=115	=115	=115	=115
0r	0r	1d	1d
.	.	2B\	2r
.	.	[2c\	2g/
=116	=116	=116	=116
0r	0r	2c\]	2a/
.	.	2A/	2cc\
.	.	2.G/	2.b\
.	.	4E/	4g/
=117	=117	=117	=117
0r	0r	2F/	2a/
.	.	2E/	1g
.	.	2C/	.
.	.	2c\	2e/
=118	=118	=118	=118
0r	0r	2d\	2f/
.	.	1e	2e/
.	.	.	1c
.	.	2c\	.
=119	=119	=119	=119
0r	0r	2B\	2d/
.	.	2G/	1e
.	.	1A	.
.	.	.	2c/
=120	=120	=120	=120
0r	0r	2G/	2B/
.	.	2E/	1c
.	.	1F	.
.	.	.	2A/
=121	=121	=121	=121
0r	0r	1E	2G/
.	.	.	1c
.	.	1A	.
.	.	.	2A/
=122	=122	=122	=122
0r	0r	2G/	2B/
.	.	2E/	2c/
.	.	2F/	1d
.	.	[2G/	.
=123	=123	=123	=123
0r	0r	2G/]	1G
.	.	1C	.
.	.	.	2.g/
.	.	[2c\	.
.	.	.	4a/
=124	=124	=124	=124
0r	0r	4c\]	2b\
.	.	4B\	.
.	.	2c\	2a/
.	.	2e\	2g/
.	.	2c\	[2cc\
=125	=125	=125	=125
0r	0r	1d	2cc\]
.	.	.	2b\
.	.	[1c	1cc
=126	=126	=126	=126
0r	0r	1c]	2r
.	.	.	1a
.	.	1r	.
.	.	.	2g/
=127	=127	=127	=127
0r	0r	1e	1e
.	.	2d\	2f/
.	.	[2B\	[2g/
=128	=128	=128	=128
0r	0r	2B\]	2g/]
.	.	2c\	2f/
.	.	1d	1d
=129	=129	=129	=129
0r	0r	1G	1g
.	.	2.d\	2f/
.	.	.	[2e/
.	.	4B\	.
=130	=130	=130	=130
0r	0r	2c\	2e/]
.	.	2d\	1d
.	.	2B-\	.
.	.	4A/	[2c/
.	.	4G/	.
=131	=131	=131	=131
0r	0r	2F/	2c/]
.	.	1G	2B/
.	.	.	1A
.	.	2F#i/	.
=132	=132	=132	=132
0r	0r	1.G	[0G
.	.	[2B\	.
=133	=133	=133	=133
0r	0r	4B\]	1G]
.	.	4c\	.
.	.	2d\	.
.	.	2B\	1r
.	.	[2e\	.
=134	=134	=134	=134
0r	0r	2e\]	1.g
.	.	4d\	.
.	.	4c\	.
.	.	2B\	.
.	.	2c\	2e/
=135	=135	=135	=135
0r	0r	2d\	2.f/
.	.	2B\	.
.	.	.	4g/
.	.	1A	2a/
.	.	.	2f/
=136	=136	=136	=136
0r	0r	2r	1e
.	.	1e	.
.	.	.	2r
.	.	2c\	[2cc\
=137	=137	=137	=137
0r	0r	1d	2cc\]
.	.	.	2b\
.	.	2c\	1cc
.	.	[2e\	.
=138	=138	=138	=138
0r	0r	2e\]	1b
.	.	2d\	.
.	.	2c\	2a/
.	.	2B\	[2g/
=139	=139	=139	=139
0r	0r	1e	2g/]
.	.	.	2cc\
.	.	1d	2b\
.	.	.	[2a/
=140	=140	=140	=140
0r	0r	2c\	2a/]
.	.	2B\	1g
.	.	1e	.
.	.	.	[2cc\
=141	=141	=141	=141
0r	0r	2c\	2cc\]
.	.	2d\	2b\
.	.	2c\	1cc
.	.	[2e\	.
=142	=142	=142	=142
0r	0r	4e\]	2b\
.	.	4d\	.
.	.	2c\	2.a/
.	.	2B\	.
.	.	.	4g/
.	.	2G/	[2g/
=143	=143	=143	=143
0r	0r	1A	2g/]
.	.	.	2f/
.	.	2.G/	2.g/
.	.	4A/	4f/
=144	=144	=144	=144
0r	0r	2B\	2g/
.	.	1c	2e/
.	.	.	1d
.	.	2B\	.
=145	=145	=145	=145
0r	0r	0cl	0cl
!!LO:TX:i:Y=40:rj:t=Osanna ut supra
=||	=||	=||	=||
*-	*-	*-	*-
!!!RDF**kern: l=long note in original notation
!!!RDF**kern: i=editorial accidental
!!!RDF**kern: V=start of tuplet marker
!!!RDF**kern: Z=end of tuplet marker
!!!ENC:	Will Watson 12/09/2012
!!!END:	2012/09/29/
!!!EED:	Jesse Rodin
!!!EEV:	2012/09/29/
!!!ONB:	Translated from MusicXML and edited on 2012/09/29/ by Craig Sapp
!!muse2ps: T^@{OPR}^u^@{ONM}{. }@{OTL}^C^@{COM}^i2I150v85,85,85,100Q16
